grass.svg

<svg fill="currentColor" viewBox="0 0 24 24"><path d="M12 20H2v-2h5.75C7 15.19 4.81 13 2 12.26c.64-.16 1.31-.26 2-.26 4.42 0 8 3.58 8 8m10-7.74c-.64-.16-1.31-.26-2-.26-2.93 0-5.5 1.58-6.88 3.93.29.66.53 1.35.67 2.07.13.65.21 1.32.21 2h8v-2h-5.76c.76-2.81 2.95-5 5.76-5.74M15.64 11c.78-2.07 2.23-3.82 4.09-5-4.29.16-7.73 3.67-7.73 8 .95-1.25 2.2-2.28 3.64-3m-4.22-2.15A8.53 8.53 0 0 0 6.7 4C8.14 5.86 9 8.18 9 10.71c0 .21-.03.41-.04.61.43.24.83.52 1.22.82a9.9 9.9 0 0 1 1.24-3.29"/></svg>

<svg  viewBox="0 0 24 24" fill="currentColor"><path  d="M12 20H2V18H7.75C7 15.19 4.81 13 2 12.26C2.64 12.1 3.31 12 4 12C8.42 12 12 15.58 12 20M22 12.26C21.36 12.1 20.69 12 20 12C17.07 12 14.5 13.58 13.12 15.93C13.41 16.59 13.65 17.28 13.79 18C13.92 18.65 14 19.32 14 20H22V18H16.24C17 15.19 19.19 13 22 12.26M15.64 11C16.42 8.93 17.87 7.18 19.73 6C15.44 6.16 12 9.67 12 14V14C12.95 12.75 14.2 11.72 15.64 11M11.42 8.85C10.58 6.66 8.88 4.89 6.7 4C8.14 5.86 9 8.18 9 10.71C9 10.92 8.97 11.12 8.96 11.32C9.39 11.56 9.79 11.84 10.18 12.14C10.39 10.96 10.83 9.85 11.42 8.85Z"/></svg>
